src/objects/other-object/26B1.svg

<svg id="emoji" viewBox="0 0 72 72" xmlns="http://www.w3.org/2000/svg">
  <g id="grid">
    <path fill="#b3b3b3" d="M68,4V68H4V4H68m4-4H0V72H72V0Z"/>
    <path fill="none" stroke="#00a5ff" stroke-miterlimit="10" stroke-width="0.1" d="M12.9231,10.9583H59.077A1.923,1.923,0,0,1,61,12.8813V59.0352a1.9231,1.9231,0,0,1-1.9231,1.9231H12.9231A1.9231,1.9231,0,0,1,11,59.0352V12.8814a1.9231,1.9231,0,0,1,1.9231-1.9231Z"/>
    <rect x="16" y="4" rx="2.2537" width="40" height="64" fill="none" stroke="#00a5ff" stroke-miterlimit="10" stroke-width="0.1"/>
    <rect x="16" y="4" rx="2.2537" width="40" height="64" transform="translate(72 0) rotate(90)" fill="none" stroke="#00a5ff" stroke-miterlimit="10" stroke-width="0.1"/>
    <circle cx="36" cy="36" r="29" fill="none" stroke="#00a5ff" stroke-miterlimit="10" stroke-width="0.1"/>
  </g>
  <g id="color">
    <g id="_26B1">
      <path fill="#f4aa41" stroke="#000" stroke-linecap="round" stroke-linejoin="round" stroke-width="2" d="M44.7967,15.1753l3.3621-2.9411a2.1208,2.1208,0,0,0-.5449-3.5321A27.5414,27.5414,0,0,0,36.2764,6.3634,27.5411,27.5411,0,0,0,24.9389,8.7021a2.1208,2.1208,0,0,0-.5449,3.5321l3.6591,3.2009c-4.8465,3.0433-9.1842,8.3556-9.1842,14.4156,0,10.7391,8.5614,35.7859,8.5614,35.7859H44.57S53.1311,40.59,53.1311,29.8507A17.0965,17.0965,0,0,0,44.7967,15.1753Z"/>
      <path fill="none" stroke="#e27022" stroke-linecap="square" stroke-linejoin="round" stroke-width="2" d="M28.0531,15.4351a30.9477,30.9477,0,0,1,16.7436-.26"/>
      <line x1="25.3523" x2="46.6477" y1="59.2014" y2="59.2014" fill="none" stroke="#e27022" stroke-linejoin="round" stroke-width="4"/>
      <line x1="19.6448" x2="52.3552" y1="29.5222" y2="29.5222" fill="none" stroke="#e27022" stroke-linecap="round" stroke-linejoin="round" stroke-width="2"/>
      <line x1="19.6448" x2="51.821" y1="34.0882" y2="34.0882" fill="none" stroke="#e27022" stroke-linecap="round" stroke-linejoin="round" stroke-width="2"/>
      <path fill="#e27022" d="M44.7967,15.1753H43.6551c0,1.0928,2.6269,8.4364,2.6269,14.6754,0,10.7391-8.5613,35.7859-8.5613,35.7859H44.57S53.1311,40.59,53.1311,29.8507A17.0965,17.0965,0,0,0,44.7967,15.1753Z"/>
      <path fill="#e27022" d="M44.7967,8.1159c2.4548,3.0045.4662,2.303-1.1416,7.0594,3.5167,2.5048,5.2063-4.7835,5.2063-4.7835S46.9864,7.5462,44.7967,8.1159Z"/>
    </g>
  </g>
  <g id="line">
    <path id="_26B1-2" fill="none" stroke="#000" stroke-linecap="round" stroke-linejoin="round" stroke-width="2" d="M44.7967,15.1753l3.3621-2.9411a2.1208,2.1208,0,0,0-.5449-3.5321A27.5414,27.5414,0,0,0,36.2764,6.3634,27.5411,27.5411,0,0,0,24.9389,8.7021a2.1208,2.1208,0,0,0-.5449,3.5321l3.6591,3.2009c-4.8465,3.0433-9.1842,8.3556-9.1842,14.4156,0,10.7391,8.5614,35.7859,8.5614,35.7859H44.57S53.1311,40.59,53.1311,29.8507A17.0965,17.0965,0,0,0,44.7967,15.1753Z"/>
  </g>
</svg>

<svg viewBox="0 0 72 72" xmlns="http://www.w3.org/2000/svg"><path fill="#b3b3b3" d="M68 4v64H4V4h64m4-4H0v72h72V0z"/><path fill="none" stroke="#00a5ff" stroke-miterlimit="10" stroke-width=".1" d="M12.923 10.958h46.154A1.923 1.923 0 0161 12.881v46.154a1.923 1.923 0 01-1.923 1.923H12.923A1.923 1.923 0 0111 59.035V12.881a1.923 1.923 0 011.923-1.923z"/><rect x="16" y="4" rx="2.254" width="40" height="64" fill="none" stroke="#00a5ff" stroke-miterlimit="10" stroke-width=".1"/><rect x="16" y="4" rx="2.254" width="40" height="64" transform="rotate(90 36 36)" fill="none" stroke="#00a5ff" stroke-miterlimit="10" stroke-width=".1"/><circle cx="36" cy="36" r="29" fill="none" stroke="#00a5ff" stroke-miterlimit="10" stroke-width=".1"/><path d="M44.797 15.175l3.362-2.94a2.12 2.12 0 00-.545-3.533 27.541 27.541 0 00-11.338-2.339 27.541 27.541 0 00-11.337 2.34 2.12 2.12 0 00-.545 3.531l3.66 3.201c-4.847 3.043-9.185 8.356-9.185 14.416 0 10.739 8.561 35.786 8.561 35.786h17.14s8.561-25.047 8.561-35.786a17.096 17.096 0 00-8.334-14.676z" stroke-linecap="round" stroke-miterlimit="10" stroke-width="6" stroke="#fff" fill="none" stroke-linejoin="round"/><path fill="#f4aa41" stroke="#000" stroke-linecap="round" stroke-linejoin="round" stroke-width="2" d="M44.797 15.175l3.362-2.94a2.12 2.12 0 00-.545-3.533 27.541 27.541 0 00-11.338-2.339 27.541 27.541 0 00-11.337 2.34 2.12 2.12 0 00-.545 3.531l3.66 3.201c-4.847 3.043-9.185 8.356-9.185 14.416 0 10.739 8.561 35.786 8.561 35.786h17.14s8.561-25.047 8.561-35.786a17.096 17.096 0 00-8.334-14.676z"/><path fill="none" stroke="#e27022" stroke-linecap="square" stroke-linejoin="round" stroke-width="2" d="M28.053 15.435a30.948 30.948 0 0116.744-.26"/><path fill="none" stroke="#e27022" stroke-linejoin="round" stroke-width="4" d="M25.352 59.201h21.296"/><path fill="none" stroke="#e27022" stroke-linecap="round" stroke-linejoin="round" stroke-width="2" d="M19.645 29.522h32.71m-32.71 4.566h32.176"/><path fill="#e27022" d="M44.797 15.175h-1.142c0 1.093 2.627 8.437 2.627 14.676 0 10.739-8.561 35.786-8.561 35.786h6.849s8.561-25.047 8.561-35.786a17.096 17.096 0 00-8.334-14.676z"/><path fill="#e27022" d="M44.797 8.116c2.455 3.004.466 2.303-1.142 7.06 3.517 2.504 5.206-4.784 5.206-4.784s-1.875-2.846-4.064-2.276z"/><g><path fill="none" stroke="#000" stroke-linecap="round" stroke-linejoin="round" stroke-width="2" d="M44.797 15.175l3.362-2.94a2.12 2.12 0 00-.545-3.533 27.541 27.541 0 00-11.338-2.339 27.541 27.541 0 00-11.337 2.34 2.12 2.12 0 00-.545 3.531l3.66 3.201c-4.847 3.043-9.185 8.356-9.185 14.416 0 10.739 8.561 35.786 8.561 35.786h17.14s8.561-25.047 8.561-35.786a17.096 17.096 0 00-8.334-14.676z"/></g></svg>
